Numix/16/emotes/face-embarassed.svg

<?xml version="1.0" encoding="UTF-8" standalone="no"?>
<svg
   xmlns:dc="http://purl.org/dc/elements/1.1/"
   xmlns:cc="http://creativecommons.org/ns#"
   xmlns:rdf="http://www.w3.org/1999/02/22-rdf-syntax-ns#"
   xmlns:svg="http://www.w3.org/2000/svg"
   xmlns="http://www.w3.org/2000/svg"
   xmlns:sodipodi="http://sodipodi.sourceforge.net/DTD/sodipodi-0.dtd"
   xmlns:inkscape="http://www.inkscape.org/namespaces/inkscape"
   width="16px"
   height="16px"
   viewBox="0 0 12 12"
   version="1.1"
   id="svg2893"
   inkscape:version="0.91 r"
   sodipodi:docname="face-embarassed.svg">
  <metadata
     id="metadata2922">
    <rdf:RDF>
      <cc:Work
         rdf:about="">
        <dc:format>image/svg+xml</dc:format>
        <dc:type
           rdf:resource="http://purl.org/dc/dcmitype/StillImage" />
      </cc:Work>
    </rdf:RDF>
  </metadata>
  <sodipodi:namedview
     pagecolor="#ffffff"
     bordercolor="#666666"
     borderopacity="1"
     objecttolerance="10"
     gridtolerance="10"
     guidetolerance="10"
     inkscape:pageopacity="0"
     inkscape:pageshadow="2"
     inkscape:window-width="640"
     inkscape:window-height="480"
     id="namedview2920" />
  <defs
     id="defs2895">
    <radialGradient
       id="radial0"
       gradientUnits="userSpaceOnUse"
       cx="16.875"
       cy="14.625"
       fx="16.875"
       fy="14.625"
       r="1.875"
       gradientTransform="matrix(0.5,0,0,0.5,0,0)">
      <stop
         offset="0"
         style="stop-color:rgb(100%,21.176471%,21.176471%);stop-opacity:1;"
         id="stop2898" />
      <stop
         offset="1"
         style="stop-color:rgb(100%,85.490196%,36.862745%);stop-opacity:1;"
         id="stop2900" />
    </radialGradient>
    <radialGradient
       id="radial1"
       gradientUnits="userSpaceOnUse"
       cx="7.125"
       cy="14.625"
       fx="7.125"
       fy="14.625"
       r="1.875"
       gradientTransform="matrix(0.5,0,0,0.5,0,0)">
      <stop
         offset="0"
         style="stop-color:rgb(100%,21.176471%,21.176471%);stop-opacity:1;"
         id="stop2903" />
      <stop
         offset="1"
         style="stop-color:rgb(100%,85.490196%,36.862745%);stop-opacity:1;"
         id="stop2905" />
    </radialGradient>
  </defs>
  <g
     id="surface1">
    <path
       style=" stroke:none;fill-rule:nonzero;fill:rgb(100%,85.098039%,36.078431%);fill-opacity:1;"
       d="M 11.25 6 C 11.25 8.484375 8.898438 10.5 6 10.5 C 3.101562 10.5 0.75 8.484375 0.75 6 C 0.75 3.515625 3.097656 1.5 6 1.5 C 8.902344 1.5 11.25 3.515625 11.25 6 Z M 11.25 6 "
       id="path2908" />
    <path
       style=" stroke:none;fill-rule:nonzero;fill:rgb(39.607843%,39.607843%,39.607843%);fill-opacity:1;"
       d="M 4.875 4.921875 C 4.875 5.363281 4.519531 5.71875 4.078125 5.71875 C 3.636719 5.71875 3.28125 5.363281 3.28125 4.921875 C 3.28125 4.480469 3.636719 4.125 4.078125 4.125 C 4.519531 4.125 4.875 4.480469 4.875 4.921875 Z M 4.875 4.921875 "
       id="path2910" />
    <path
       style=" stroke:none;fill-rule:nonzero;fill:rgb(39.607843%,39.607843%,39.607843%);fill-opacity:1;"
       d="M 8.625 4.921875 C 8.625 5.363281 8.269531 5.71875 7.828125 5.71875 C 7.386719 5.71875 7.03125 5.363281 7.03125 4.921875 C 7.03125 4.480469 7.386719 4.125 7.828125 4.125 C 8.269531 4.125 8.625 4.480469 8.625 4.921875 Z M 8.625 4.921875 "
       id="path2912" />
    <path
       style=" stroke:none;fill-rule:nonzero;fill:rgb(38.823529%,38.823529%,38.823529%);fill-opacity:1;"
       d="M 6.65625 7.96875 C 6.65625 8.332031 6.363281 8.625 6 8.625 C 5.636719 8.625 5.34375 8.332031 5.34375 7.96875 C 5.34375 7.605469 5.636719 7.3125 6 7.3125 C 6.363281 7.3125 6.65625 7.605469 6.65625 7.96875 Z M 6.65625 7.96875 "
       id="path2914" />
    <path
       style=" stroke:none;fill-rule:nonzero;fill:url(#radial0);"
       d="M 9.375 7.3125 C 9.375 7.832031 8.957031 8.25 8.4375 8.25 C 7.917969 8.25 7.5 7.832031 7.5 7.3125 C 7.5 6.792969 7.917969 6.375 8.4375 6.375 C 8.957031 6.375 9.375 6.792969 9.375 7.3125 Z M 9.375 7.3125 "
       id="path2916" />
    <path
       style=" stroke:none;fill-rule:nonzero;fill:url(#radial1);"
       d="M 4.5 7.3125 C 4.5 7.832031 4.082031 8.25 3.5625 8.25 C 3.042969 8.25 2.625 7.832031 2.625 7.3125 C 2.625 6.792969 3.042969 6.375 3.5625 6.375 C 4.082031 6.375 4.5 6.792969 4.5 7.3125 Z M 4.5 7.3125 "
       id="path2918" />
  </g>
</svg>

<svg xmlns="http://www.w3.org/2000/svg" width="16" height="16" viewBox="0 0 12 12" xmlns:xlink="http://www.w3.org/1999/xlink">
 <defs>
  <radialGradient id="radial0" gradientUnits="userSpaceOnUse" cx="16.875" cy="14.625" r="1.875" gradientTransform="matrix(0.5,0,0,0.5,0,0)">
   <stop style="stop-color:#ff3636;stop-opacity:1"/>
   <stop offset="1" style="stop-color:#ffd95d;stop-opacity:1"/>
  </radialGradient>
  <radialGradient id="radial1" gradientUnits="userSpaceOnUse" cx="7.125" cy="14.625" r="1.875" gradientTransform="matrix(0.5,0,0,0.5,0,0)" xlink:href="#radial0"/>
 </defs>
 <g>
  <path d="m 11.25 6 c 0 2.484 -2.352 4.5 -5.25 4.5 c -2.898 0 -5.25 -2.02 -5.25 -4.5 c 0 -2.484 2.348 -4.5 5.25 -4.5 c 2.902 0 5.25 2.02 5.25 4.5 m 0 0" style="fill:#ffd85b;fill-opacity:1;stroke:none;fill-rule:nonzero"/>
  <path d="m 4.875 4.922 c 0 0.441 -0.355 0.797 -0.797 0.797 c -0.441 0 -0.797 -0.355 -0.797 -0.797 c 0 -0.441 0.355 -0.797 0.797 -0.797 c 0.441 0 0.797 0.355 0.797 0.797 m 0 0" style="fill:#646464;fill-opacity:1;stroke:none;fill-rule:nonzero"/>
  <path d="m 8.625 4.922 c 0 0.441 -0.355 0.797 -0.797 0.797 c -0.441 0 -0.797 -0.355 -0.797 -0.797 c 0 -0.441 0.355 -0.797 0.797 -0.797 c 0.441 0 0.797 0.355 0.797 0.797 m 0 0" style="fill:#646464;fill-opacity:1;stroke:none;fill-rule:nonzero"/>
  <path d="m 6.656 7.969 c 0 0.363 -0.293 0.656 -0.656 0.656 c -0.363 0 -0.656 -0.293 -0.656 -0.656 c 0 -0.363 0.293 -0.656 0.656 -0.656 c 0.363 0 0.656 0.293 0.656 0.656 m 0 0" style="fill:#626262;fill-opacity:1;stroke:none;fill-rule:nonzero"/>
  <path d="m 9.375 7.313 c 0 0.52 -0.418 0.938 -0.938 0.938 c -0.52 0 -0.938 -0.418 -0.938 -0.938 c 0 -0.52 0.418 -0.938 0.938 -0.938 c 0.52 0 0.938 0.418 0.938 0.938 m 0 0" style="fill:url(#radial0);stroke:none;fill-rule:nonzero"/>
  <path d="m 4.5 7.313 c 0 0.52 -0.418 0.938 -0.938 0.938 c -0.52 0 -0.938 -0.418 -0.938 -0.938 c 0 -0.52 0.418 -0.938 0.938 -0.938 c 0.52 0 0.938 0.418 0.938 0.938 m 0 0" style="fill:url(#radial1);stroke:none;fill-rule:nonzero"/>
 </g>
</svg>
